P3
64 64
255
24 27 34 24 27 34 24 27 34 24 27 34 24 27 34 24 27 34 24 27 34 24 27 34 24 27 34 24 27 34 24 27 34 24 27 34 24 27 34 24 27 34 24 27 34 24 27 34 24 27 34 24 27 34 24 27 34 24 27 34 24 27 34 24 27 34 24 27 34 24 27 34 24 27 34 24 27 34 24 27 34 24 27 34 24 27 34 24 27 34 24 27 34 24 27 34 24 27 34 24 27 34 24 27 34 24 27 34 24 27 34 24 27 34 24 27 34 24 27 34 24 27 34 24 27 34 24 27 34 24 27 34 24 27 34 24 27 34 24 27 34 24 27 34 24 27 34 24 27 34 24 27 34 24 27 34 24 27 34 24 27 34 24 27 34 24 27 34 24 27 34 24 27 34 24 27 34 24 27 34 24 27 34 24 27 34 24 27 34 24 27 34
24 27 34 24 27 34 24 27 34 24 27 34 24 27 34 24 27 34 24 27 34 24 27 34 24 27 34 24 27 34 24 27 34 24 27 34 24 27 34 24 27 34 24 27 34 24 27 34 24 27 34 24 27 34 24 27 34 24 27 34 24 27 34 24 27 34 24 27 34 24 27 34 24 27 34 24 27 34 24 27 34 24 27 34 24 27 34 24 27 34 24 27 34 24 27 34 24 27 34 24 27 34 24 27 34 24 27 34 24 27 34 24 27 34 24 27 34 24 27 34 24 27 34 24 27 34 24 27 34 24 27 34 24 27 34 24 27 34 24 27 34 24 27 34 24 27 34 24 27 34 24 27 34 24 27 34 24 27 34 24 27 34 24 27 34 24 27 34 24 27 34 24 27 34 24 27 34 24 27 34 24 27 34 24 27 34 24 27 34 24 27 34
24 27 34 24 27 34 24 27 34 24 27 34 24 27 34 24 27 34 24 27 34 24 27 34 24 27 34 24 27 34 24 27 34 24 27 34 24 27 34 24 27 34 24 27 34 24 27 34 24 27 34 24 27 34 24 27 34 24 27 34 24 27 34 24 27 34 24 27 34 24 27 34 24 27 34 24 27 34 24 27 34 24 27 34 24 27 34 24 27 34 24 27 34 24 27 34 24 27 34 24 27 34 24 27 34 24 27 34 24 27 34 24 27 34 24 27 34 24 27 34 24 27 34 24 27 34 24 27 34 24 27 34 24 27 34 24 27 34 24 27 34 24 27 34 24 27 34 24 27 34 24 27 34 24 27 34 24 27 34 24 27 34 24 27 34 24 27 34 24 27 34 24 27 34 24 27 34 24 27 34 24 27 34 24 27 34 24 27 34 24 27 34
24 27 34 24 27 34 24 27 34 24 27 34 24 27 34 24 27 34 24 27 34 24 27 34 24 27 34 24 27 34 24 27 34 24 27 34 24 27 34 24 27 34 24 27 34 24 27 34 24 27 34 24 27 34 24 27 34 24 27 34 24 27 34 24 27 34 24 27 34 24 27 34 24 27 34 24 27 34 24 27 34 24 27 34 24 27 34 24 27 34 24 27 34 24 27 34 24 27 34 24 27 34 24 27 34 24 27 34 24 27 34 24 27 34 24 27 34 24 27 34 24 27 34 24 27 34 24 27 34 24 27 34 24 27 34 24 27 34 24 27 34 24 27 34 24 27 34 24 27 34 24 27 34 24 27 34 24 27 34 24 27 34 24 27 34 24 27 34 24 27 34 24 27 34 24 27 34 24 27 34 24 27 34 24 27 34 24 27 34 24 27 34
24 27 34 24 27 34 24 27 34 24 27 34 24 27 34 24 27 34 24 27 34 24 27 34 24 27 34 24 27 34 24 27 34 24 27 34 24 27 34 24 27 34 24 27 34 24 27 34 24 27 34 24 27 34 24 27 34 24 27 34 24 27 34 24 27 34 24 27 34 24 27 34 24 27 34 24 27 34 24 27 34 24 27 34 24 27 34 24 27 34 24 27 34 24 27 34 24 27 34 24 27 34 24 27 34 24 27 34 24 27 34 24 27 34 24 27 34 24 27 34 24 27 34 24 27 34 24 27 34 24 27 34 24 27 34 24 27 34 24 27 34 24 27 34 24 27 34 24 27 34 24 27 34 24 27 34 24 27 34 24 27 34 24 27 34 24 27 34 24 27 34 24 27 34 24 27 34 24 27 34 24 27 34 24 27 34 24 27 34 24 27 34
24 27 34 24 27 34 24 27 34 24 27 34 24 27 34 24 27 34 24 27 34 24 27 34 24 27 34 24 27 34 24 27 34 24 27 34 24 27 34 24 27 34 24 27 34 24 27 34 24 27 34 24 27 34 24 27 34 24 27 34 24 27 34 24 27 34 24 27 34 24 27 34 24 27 34 24 27 34 24 27 34 24 27 34 24 27 34 24 27 34 24 27 34 24 27 34 24 27 34 24 27 34 24 27 34 24 27 34 24 27 34 24 27 34 24 27 34 24 27 34 24 27 34 24 27 34 24 27 34 24 27 34 24 27 34 24 27 34 24 27 34 24 27 34 24 27 34 24 27 34 24 27 34 24 27 34 24 27 34 24 27 34 24 27 34 24 27 34 24 27 34 24 27 34 24 27 34 24 27 34 24 27 34 24 27 34 24 27 34 24 27 34
24 27 34 24 27 34 24 27 34 24 27 34 24 27 34 24 27 34 24 27 34 24 27 34 24 27 34 24 27 34 24 27 34 24 27 34 24 27 34 24 27 34 24 27 34 24 27 34 24 27 34 24 27 34 24 27 34 24 27 34 24 27 34 24 27 34 24 27 34 24 27 34 24 27 34 24 27 34 24 27 34 24 27 34 24 27 34 24 27 34 24 27 34 24 27 34 24 27 34 24 27 34 24 27 34 24 27 34 24 27 34 24 27 34 24 27 34 24 27 34 24 27 34 24 27 34 24 27 34 24 27 34 24 27 34 24 27 34 24 27 34 24 27 34 24 27 34 24 27 34 24 27 34 24 27 34 24 27 34 24 27 34 24 27 34 24 27 34 24 27 34 24 27 34 24 27 34 24 27 34 24 27 34 24 27 34 24 27 34 24 27 34
24 27 34 24 27 34 24 27 34 24 27 34 24 27 34 24 27 34 24 27 34 24 27 34 24 27 34 24 27 34 24 27 34 24 27 34 24 27 34 24 27 34 24 27 34 24 27 34 24 27 34 24 27 34 24 27 34 24 27 34 24 27 34 24 27 34 24 27 34 24 27 34 24 27 34 24 27 34 24 27 34 24 27 34 24 27 34 24 27 34 24 27 34 24 27 34 24 27 34 24 27 34 24 27 34 24 27 34 24 27 34 24 27 34 24 27 34 24 27 34 24 27 34 24 27 34 24 27 34 24 27 34 24 27 34 24 27 34 24 27 34 24 27 34 24 27 34 24 27 34 24 27 34 24 27 34 24 27 34 24 27 34 24 27 34 24 27 34 24 27 34 24 27 34 24 27 34 24 27 34 24 27 34 24 27 34 24 27 34 24 27 34
24 27 34 24 27 34 24 27 34 24 27 34 24 27 34 24 27 34 24 27 34 24 27 34 24 27 34 24 27 34 24 27 34 24 27 34 24 27 34 24 27 34 24 27 34 24 27 34 24 27 34 24 27 34 24 27 34 24 27 34 24 27 34 24 27 34 24 27 34 24 27 34 24 27 34 24 27 34 24 27 34 24 27 34 24 27 34 24 27 34 24 27 34 24 27 34 24 27 34 24 27 34 24 27 34 24 27 34 24 27 34 24 27 34 24 27 34 24 27 34 24 27 34 24 27 34 24 27 34 24 27 34 24 27 34 24 27 34 24 27 34 24 27 34 24 27 34 24 27 34 24 27 34 24 27 34 24 27 34 24 27 34 24 27 34 24 27 34 24 27 34 24 27 34 24 27 34 24 27 34 24 27 34 24 27 34 24 27 34 24 27 34
24 27 34 24 27 34 24 27 34 24 27 34 24 27 34 24 27 34 24 27 34 24 27 34 24 27 34 24 27 34 24 27 34 24 27 34 24 27 34 24 27 34 24 27 34 24 27 34 24 27 34 24 27 34 24 27 34 24 27 34 24 27 34 24 27 34 24 27 34 24 27 34 24 27 34 24 27 34 24 27 34 24 27 34 24 27 34 24 27 34 24 27 34 24 27 34 24 27 34 24 27 34 24 27 34 24 27 34 24 27 34 24 27 34 24 27 34 24 27 34 24 27 34 24 27 34 24 27 34 24 27 34 24 27 34 24 27 34 24 27 34 24 27 34 24 27 34 24 27 34 24 27 34 24 27 34 24 27 34 24 27 34 24 27 34 24 27 34 24 27 34 24 27 34 24 27 34 24 27 34 24 27 34 24 27 34 24 27 34 24 27 34
24 27 34 24 27 34 24 27 34 24 27 34 24 27 34 24 27 34 24 27 34 24 27 34 24 27 34 24 27 34 24 27 34 24 27 34 24 27 34 24 27 34 24 27 34 24 27 34 24 27 34 24 27 34 24 27 34 24 27 34 24 27 34 24 27 34 24 27 34 24 27 34 24 27 34 24 27 34 24 27 34 24 27 34 24 27 34 24 27 34 24 27 34 24 27 34 24 27 34 24 27 34 24 27 34 24 27 34 24 27 34 24 27 34 24 27 34 24 27 34 24 27 34 24 27 34 24 27 34 24 27 34 24 27 34 24 27 34 24 27 34 24 27 34 24 27 34 24 27 34 24 27 34 24 27 34 24 27 34 24 27 34 24 27 34 24 27 34 24 27 34 24 27 34 24 27 34 24 27 34 24 27 34 24 27 34 24 27 34 24 27 34
24 27 34 24 27 34 24 27 34 24 27 34 24 27 34 24 27 34 24 27 34 24 27 34 24 27 34 24 27 34 24 27 34 24 27 34 24 27 34 24 27 34 24 27 34 24 27 34 24 27 34 24 27 34 24 27 34 24 27 34 24 27 34 24 27 34 24 27 34 24 27 34 24 27 34 24 27 34 24 27 34 24 27 34 24 27 34 24 27 34 24 27 34 24 27 34 24 27 34 24 27 34 24 27 34 24 27 34 24 27 34 24 27 34 24 27 34 24 27 34 24 27 34 24 27 34 24 27 34 24 27 34 24 27 34 24 27 34 24 27 34 24 27 34 24 27 34 24 27 34 24 27 34 24 27 34 24 27 34 24 27 34 24 27 34 24 27 34 24 27 34 24 27 34 24 27 34 24 27 34 24 27 34 24 27 34 24 27 34 24 27 34
24 27 34 24 27 34 24 27 34 24 27 34 24 27 34 24 27 34 24 27 34 24 27 34 24 27 34 24 27 34 24 27 34 24 27 34 24 27 34 24 27 34 24 27 34 24 27 34 24 27 34 24 27 34 24 27 34 24 27 34 24 27 34 24 27 34 24 27 34 24 27 34 24 27 34 24 27 34 24 27 34 24 27 34 24 27 34 24 27 34 24 27 34 24 27 34 24 27 34 24 27 34 24 27 34 24 27 34 24 27 34 24 27 34 24 27 34 24 27 34 24 27 34 24 27 34 24 27 34 24 27 34 24 27 34 24 27 34 24 27 34 24 27 34 24 27 34 24 27 34 24 27 34 24 27 34 24 27 34 24 27 34 24 27 34 24 27 34 24 27 34 24 27 34 24 27 34 24 27 34 24 27 34 24 27 34 24 27 34 24 27 34
24 27 34 24 27 34 24 27 34 24 27 34 24 27 34 24 27 34 24 27 34 24 27 34 24 27 34 24 27 34 24 27 34 24 27 34 24 27 34 24 27 34 24 27 34 24 27 34 24 27 34 24 27 34 24 27 34 24 27 34 24 27 34 24 27 34 24 27 34 24 27 34 24 27 34 24 27 34 24 27 34 24 27 34 24 27 34 24 27 34 24 27 34 24 27 34 24 27 34 24 27 34 24 27 34 24 27 34 24 27 34 24 27 34 24 27 34 24 27 34 24 27 34 24 27 34 24 27 34 24 27 34 24 27 34 24 27 34 24 27 34 24 27 34 24 27 34 24 27 34 24 27 34 24 27 34 24 27 34 24 27 34 24 27 34 24 27 34 24 27 34 24 27 34 24 27 34 24 27 34 24 27 34 24 27 34 24 27 34 24 27 34
24 27 34 24 27 34 24 27 34 24 27 34 24 27 34 24 27 34 24 27 34 24 27 34 24 27 34 24 27 34 24 27 34 24 27 34 24 27 34 24 27 34 24 27 34 24 27 34 24 27 34 24 27 34 24 27 34 24 27 34 24 27 34 24 27 34 24 27 34 24 27 34 24 27 34 24 27 34 24 27 34 24 27 34 24 27 34 24 27 34 24 27 34 24 27 34 24 27 34 24 27 34 24 27 34 24 27 34 24 27 34 24 27 34 230 236 243 230 236 243 230 236 243 24 27 34 24 27 34 24 27 34 24 27 34 24 27 34 24 27 34 24 27 34 24 27 34 24 27 34 24 27 34 24 27 34 24 27 34 24 27 34 24 27 34 24 27 34 24 27 34 24 27 34 24 27 34 24 27 34 24 27 34 24 27 34 24 27 34 24 27 34
24 27 34 24 27 34 24 27 34 24 27 34 24 27 34 24 27 34 24 27 34 24 27 34 24 27 34 24 27 34 24 27 34 24 27 34 24 27 34 24 27 34 24 27 34 24 27 34 24 27 34 24 27 34 24 27 34 24 27 34 24 27 34 24 27 34 24 27 34 24 27 34 24 27 34 24 27 34 24 27 34 24 27 34 24 27 34 24 27 34 24 27 34 24 27 34 230 236 243 230 236 243 230 236 243 230 236 243 230 236 243 230 236 243 24 27 34 24 27 34 230 236 243 24 27 34 24 27 34 24 27 34 24 27 34 24 27 34 24 27 34 24 27 34 24 27 34 24 27 34 24 27 34 24 27 34 24 27 34 24 27 34 24 27 34 24 27 34 24 27 34 24 27 34 24 27 34 24 27 34 24 27 34 24 27 34 24 27 34 24 27 34
24 27 34 24 27 34 24 27 34 24 27 34 24 27 34 24 27 34 24 27 34 24 27 34 24 27 34 24 27 34 24 27 34 24 27 34 24 27 34 24 27 34 24 27 34 24 27 34 24 27 34 24 27 34 24 27 34 24 27 34 24 27 34 24 27 34 24 27 34 24 27 34 24 27 34 24 27 34 24 27 34 230 236 243 230 236 243 230 236 243 230 236 243 230 236 243 24 27 34 24 27 34 24 27 34 24 27 34 24 27 34 24 27 34 24 27 34 24 27 34 24 27 34 230 236 243 24 27 34 24 27 34 24 27 34 24 27 34 24 27 34 24 27 34 24 27 34 24 27 34 24 27 34 24 27 34 24 27 34 24 27 34 24 27 34 24 27 34 24 27 34 24 27 34 24 27 34 24 27 34 24 27 34 24 27 34 24 27 34 24 27 34
24 27 34 24 27 34 24 27 34 24 27 34 24 27 34 24 27 34 24 27 34 24 27 34 24 27 34 24 27 34 24 27 34 24 27 34 24 27 34 24 27 34 24 27 34 24 27 34 24 27 34 24 27 34 24 27 34 24 27 34 24 27 34 230 236 243 230 236 243 230 236 243 230 236 243 230 236 243 230 236 243 24 27 34 24 27 34 24 27 34 24 27 34 24 27 34 24 27 34 24 27 34 24 27 34 24 27 34 24 27 34 24 27 34 24 27 34 24 27 34 24 27 34 230 236 243 24 27 34 24 27 34 24 27 34 24 27 34 24 27 34 24 27 34 24 27 34 24 27 34 24 27 34 24 27 34 24 27 34 24 27 34 24 27 34 24 27 34 24 27 34 24 27 34 24 27 34 24 27 34 24 27 34 24 27 34 24 27 34 24 27 34
24 27 34 24 27 34 24 27 34 24 27 34 24 27 34 24 27 34 24 27 34 24 27 34 24 27 34 24 27 34 24 27 34 24 27 34 24 27 34 24 27 34 24 27 34 24 27 34 24 27 34 24 27 34 230 236 243 230 236 243 230 236 243 24 27 34 24 27 34 24 27 34 24 27 34 24 27 34 24 27 34 24 27 34 24 27 34 24 27 34 24 27 34 24 27 34 24 27 34 24 27 34 24 27 34 24 27 34 24 27 34 24 27 34 24 27 34 24 27 34 24 27 34 230 236 243 24 27 34 24 27 34 24 27 34 24 27 34 24 27 34 24 27 34 24 27 34 24 27 34 24 27 34 24 27 34 24 27 34 24 27 34 24 27 34 24 27 34 24 27 34 24 27 34 24 27 34 24 27 34 24 27 34 24 27 34 24 27 34 24 27 34
24 27 34 24 27 34 24 27 34 24 27 34 24 27 34 24 27 34 24 27 34 24 27 34 24 27 34 24 27 34 24 27 34 24 27 34 24 27 34 24 27 34 24 27 34 24 27 34 24 27 34 24 27 34 230 236 243 24 27 34 24 27 34 24 27 34 24 27 34 24 27 34 24 27 34 24 27 34 24 27 34 24 27 34 24 27 34 24 27 34 24 27 34 24 27 34 24 27 34 24 27 34 24 27 34 24 27 34 24 27 34 24 27 34 24 27 34 24 27 34 24 27 34 24 27 34 230 236 243 24 27 34 24 27 34 24 27 34 24 27 34 24 27 34 24 27 34 24 27 34 24 27 34 24 27 34 24 27 34 24 27 34 24 27 34 24 27 34 24 27 34 24 27 34 24 27 34 24 27 34 24 27 34 24 27 34 24 27 34 24 27 34
24 27 34 24 27 34 24 27 34 24 27 34 24 27 34 24 27 34 24 27 34 24 27 34 24 27 34 24 27 34 24 27 34 24 27 34 24 27 34 24 27 34 24 27 34 24 27 34 24 27 34 24 27 34 24 27 34 230 236 243 24 27 34 24 27 34 24 27 34 24 27 34 24 27 34 24 27 34 24 27 34 24 27 34 24 27 34 24 27 34 24 27 34 24 27 34 24 27 34 24 27 34 24 27 34 24 27 34 24 27 34 24 27 34 24 27 34 24 27 34 24 27 34 24 27 34 230 236 243 24 27 34 24 27 34 24 27 34 24 27 34 24 27 34 24 27 34 24 27 34 24 27 34 24 27 34 24 27 34 24 27 34 24 27 34 24 27 34 24 27 34 24 27 34 24 27 34 24 27 34 24 27 34 24 27 34 24 27 34 24 27 34
24 27 34 24 27 34 24 27 34 24 27 34 24 27 34 24 27 34 24 27 34 24 27 34 24 27 34 24 27 34 24 27 34 24 27 34 24 27 34 24 27 34 24 27 34 24 27 34 24 27 34 24 27 34 24 27 34 230 236 243 24 27 34 24 27 34 24 27 34 24 27 34 24 27 34 24 27 34 24 27 34 24 27 34 24 27 34 24 27 34 24 27 34 24 27 34 24 27 34 24 27 34 24 27 34 24 27 34 24 27 34 24 27 34 24 27 34 24 27 34 24 27 34 24 27 34 230 236 243 24 27 34 24 27 34 24 27 34 24 27 34 24 27 34 24 27 34 24 27 34 24 27 34 24 27 34 24 27 34 24 27 34 24 27 34 24 27 34 24 27 34 24 27 34 24 27 34 24 27 34 24 27 34 24 27 34 24 27 34 24 27 34
24 27 34 24 27 34 24 27 34 24 27 34 24 27 34 24 27 34 24 27 34 24 27 34 24 27 34 24 27 34 24 27 34 24 27 34 24 27 34 24 27 34 24 27 34 24 27 34 24 27 34 24 27 34 24 27 34 230 236 243 24 27 34 24 27 34 24 27 34 24 27 34 24 27 34 24 27 34 24 27 34 24 27 34 24 27 34 24 27 34 24 27 34 24 27 34 24 27 34 24 27 34 24 27 34 24 27 34 24 27 34 24 27 34 24 27 34 24 27 34 24 27 34 24 27 34 230 236 243 24 27 34 24 27 34 24 27 34 24 27 34 24 27 34 24 27 34 24 27 34 24 27 34 24 27 34 24 27 34 24 27 34 24 27 34 24 27 34 24 27 34 24 27 34 24 27 34 24 27 34 24 27 34 24 27 34 24 27 34 24 27 34
24 27 34 24 27 34 24 27 34 24 27 34 24 27 34 24 27 34 24 27 34 24 27 34 24 27 34 24 27 34 24 27 34 24 27 34 24 27 34 24 27 34 24 27 34 24 27 34 24 27 34 24 27 34 24 27 34 230 236 243 24 27 34 24 27 34 24 27 34 24 27 34 24 27 34 24 27 34 24 27 34 24 27 34 24 27 34 24 27 34 24 27 34 24 27 34 24 27 34 24 27 34 24 27 34 24 27 34 24 27 34 24 27 34 24 27 34 24 27 34 24 27 34 24 27 34 24 27 34 230 236 243 24 27 34 24 27 34 24 27 34 24 27 34 24 27 34 24 27 34 24 27 34 24 27 34 24 27 34 24 27 34 24 27 34 24 27 34 24 27 34 24 27 34 24 27 34 24 27 34 24 27 34 24 27 34 24 27 34 24 27 34
24 27 34 24 27 34 24 27 34 24 27 34 24 27 34 24 27 34 24 27 34 24 27 34 24 27 34 24 27 34 24 27 34 24 27 34 24 27 34 24 27 34 24 27 34 24 27 34 24 27 34 24 27 34 24 27 34 24 27 34 230 236 243 24 27 34 24 27 34 24 27 34 24 27 34 24 27 34 24 27 34 24 27 34 24 27 34 24 27 34 24 27 34 24 27 34 24 27 34 24 27 34 24 27 34 24 27 34 24 27 34 24 27 34 24 27 34 24 27 34 24 27 34 24 27 34 24 27 34 230 236 243 24 27 34 24 27 34 24 27 34 24 27 34 24 27 34 24 27 34 24 27 34 24 27 34 24 27 34 24 27 34 24 27 34 24 27 34 24 27 34 24 27 34 24 27 34 24 27 34 24 27 34 24 27 34 24 27 34 24 27 34
24 27 34 24 27 34 24 27 34 24 27 34 24 27 34 24 27 34 24 27 34 24 27 34 24 27 34 24 27 34 24 27 34 24 27 34 24 27 34 24 27 34 24 27 34 24 27 34 24 27 34 24 27 34 24 27 34 24 27 34 230 236 243 24 27 34 24 27 34 24 27 34 24 27 34 24 27 34 24 27 34 24 27 34 24 27 34 24 27 34 24 27 34 24 27 34 24 27 34 24 27 34 24 27 34 24 27 34 24 27 34 24 27 34 24 27 34 24 27 34 24 27 34 24 27 34 24 27 34 230 236 243 24 27 34 24 27 34 24 27 34 24 27 34 24 27 34 24 27 34 24 27 34 24 27 34 24 27 34 24 27 34 24 27 34 24 27 34 24 27 34 24 27 34 24 27 34 24 27 34 24 27 34 24 27 34 24 27 34 24 27 34
24 27 34 24 27 34 24 27 34 24 27 34 24 27 34 24 27 34 24 27 34 24 27 34 24 27 34 24 27 34 24 27 34 24 27 34 24 27 34 24 27 34 24 27 34 24 27 34 24 27 34 24 27 34 24 27 34 24 27 34 230 236 243 24 27 34 24 27 34 24 27 34 24 27 34 24 27 34 24 27 34 24 27 34 24 27 34 24 27 34 24 27 34 24 27 34 24 27 34 24 27 34 24 27 34 24 27 34 24 27 34 24 27 34 24 27 34 24 27 34 24 27 34 24 27 34 24 27 34 24 27 34 230 236 243 24 27 34 24 27 34 24 27 34 24 27 34 24 27 34 24 27 34 24 27 34 24 27 34 24 27 34 24 27 34 24 27 34 24 27 34 24 27 34 24 27 34 24 27 34 24 27 34 24 27 34 24 27 34 24 27 34
24 27 34 24 27 34 24 27 34 24 27 34 24 27 34 24 27 34 24 27 34 24 27 34 24 27 34 24 27 34 24 27 34 24 27 34 24 27 34 24 27 34 24 27 34 24 27 34 24 27 34 24 27 34 24 27 34 24 27 34 24 27 34 230 236 243 24 27 34 24 27 34 24 27 34 24 27 34 24 27 34 24 27 34 24 27 34 24 27 34 24 27 34 24 27 34 24 27 34 24 27 34 24 27 34 24 27 34 24 27 34 24 27 34 24 27 34 24 27 34 24 27 34 24 27 34 24 27 34 24 27 34 230 236 243 24 27 34 24 27 34 24 27 34 24 27 34 24 27 34 24 27 34 24 27 34 24 27 34 24 27 34 24 27 34 24 27 34 24 27 34 24 27 34 24 27 34 24 27 34 24 27 34 24 27 34 24 27 34 24 27 34
24 27 34 24 27 34 24 27 34 24 27 34 24 27 34 24 27 34 24 27 34 24 27 34 24 27 34 24 27 34 24 27 34 24 27 34 24 27 34 24 27 34 24 27 34 24 27 34 24 27 34 24 27 34 24 27 34 24 27 34 24 27 34 230 236 243 24 27 34 24 27 34 24 27 34 24 27 34 24 27 34 24 27 34 24 27 34 24 27 34 24 27 34 24 27 34 24 27 34 24 27 34 24 27 34 24 27 34 24 27 34 24 27 34 24 27 34 24 27 34 24 27 34 24 27 34 24 27 34 24 27 34 230 236 243 24 27 34 24 27 34 24 27 34 24 27 34 24 27 34 24 27 34 24 27 34 24 27 34 24 27 34 24 27 34 24 27 34 24 27 34 24 27 34 24 27 34 24 27 34 24 27 34 24 27 34 24 27 34 24 27 34
24 27 34 24 27 34 24 27 34 24 27 34 24 27 34 24 27 34 24 27 34 24 27 34 24 27 34 24 27 34 24 27 34 24 27 34 24 27 34 24 27 34 24 27 34 24 27 34 24 27 34 24 27 34 24 27 34 24 27 34 24 27 34 230 236 243 24 27 34 24 27 34 24 27 34 24 27 34 24 27 34 24 27 34 24 27 34 24 27 34 24 27 34 24 27 34 24 27 34 24 27 34 24 27 34 24 27 34 24 27 34 24 27 34 24 27 34 24 27 34 24 27 34 24 27 34 24 27 34 24 27 34 24 27 34 230 236 243 24 27 34 24 27 34 24 27 34 24 27 34 24 27 34 24 27 34 24 27 34 24 27 34 24 27 34 24 27 34 24 27 34 24 27 34 24 27 34 24 27 34 24 27 34 24 27 34 24 27 34 24 27 34
24 27 34 24 27 34 24 27 34 24 27 34 24 27 34 24 27 34 24 27 34 24 27 34 24 27 34 24 27 34 24 27 34 24 27 34 24 27 34 24 27 34 24 27 34 24 27 34 24 27 34 24 27 34 24 27 34 24 27 34 24 27 34 24 27 34 230 236 243 24 27 34 24 27 34 24 27 34 24 27 34 24 27 34 24 27 34 24 27 34 24 27 34 24 27 34 24 27 34 24 27 34 24 27 34 24 27 34 24 27 34 24 27 34 24 27 34 24 27 34 24 27 34 24 27 34 24 27 34 24 27 34 24 27 34 230 236 243 24 27 34 24 27 34 24 27 34 24 27 34 24 27 34 24 27 34 24 27 34 24 27 34 24 27 34 24 27 34 24 27 34 24 27 34 24 27 34 24 27 34 24 27 34 24 27 34 24 27 34 24 27 34
24 27 34 24 27 34 24 27 34 24 27 34 24 27 34 24 27 34 24 27 34 24 27 34 24 27 34 24 27 34 24 27 34 24 27 34 24 27 34 24 27 34 24 27 34 24 27 34 24 27 34 24 27 34 24 27 34 24 27 34 24 27 34 24 27 34 230 236 243 24 27 34 24 27 34 24 27 34 24 27 34 24 27 34 24 27 34 24 27 34 24 27 34 24 27 34 24 27 34 24 27 34 24 27 34 24 27 34 24 27 34 24 27 34 24 27 34 24 27 34 24 27 34 24 27 34 24 27 34 24 27 34 24 27 34 230 236 243 24 27 34 24 27 34 24 27 34 24 27 34 24 27 34 24 27 34 24 27 34 24 27 34 24 27 34 24 27 34 24 27 34 24 27 34 24 27 34 24 27 34 24 27 34 24 27 34 24 27 34 24 27 34
24 27 34 24 27 34 24 27 34 24 27 34 24 27 34 24 27 34 24 27 34 24 27 34 24 27 34 24 27 34 24 27 34 24 27 34 24 27 34 24 27 34 24 27 34 24 27 34 24 27 34 24 27 34 24 27 34 24 27 34 24 27 34 24 27 34 230 236 243 24 27 34 24 27 34 24 27 34 24 27 34 24 27 34 24 27 34 24 27 34 24 27 34 24 27 34 24 27 34 24 27 34 24 27 34 24 27 34 24 27 34 24 27 34 24 27 34 24 27 34 24 27 34 24 27 34 24 27 34 24 27 34 24 27 34 230 236 243 24 27 34 24 27 34 24 27 34 24 27 34 24 27 34 24 27 34 24 27 34 24 27 34 24 27 34 24 27 34 24 27 34 24 27 34 24 27 34 24 27 34 24 27 34 24 27 34 24 27 34 24 27 34
24 27 34 24 27 34 24 27 34 24 27 34 24 27 34 24 27 34 24 27 34 24 27 34 24 27 34 24 27 34 24 27 34 24 27 34 24 27 34 24 27 34 24 27 34 24 27 34 24 27 34 24 27 34 24 27 34 24 27 34 24 27 34 24 27 34 230 236 243 24 27 34 24 27 34 24 27 34 24 27 34 24 27 34 24 27 34 24 27 34 24 27 34 24 27 34 24 27 34 24 27 34 24 27 34 24 27 34 24 27 34 24 27 34 24 27 34 24 27 34 24 27 34 24 27 34 24 27 34 24 27 34 24 27 34 24 27 34 230 236 243 24 27 34 24 27 34 24 27 34 24 27 34 24 27 34 24 27 34 24 27 34 24 27 34 24 27 34 24 27 34 24 27 34 24 27 34 24 27 34 24 27 34 24 27 34 24 27 34 24 27 34
24 27 34 24 27 34 24 27 34 24 27 34 24 27 34 24 27 34 24 27 34 24 27 34 24 27 34 24 27 34 24 27 34 24 27 34 24 27 34 24 27 34 24 27 34 24 27 34 24 27 34 24 27 34 24 27 34 24 27 34 24 27 34 24 27 34 24 27 34 230 236 243 24 27 34 24 27 34 24 27 34 24 27 34 24 27 34 24 27 34 24 27 34 24 27 34 24 27 34 24 27 34 24 27 34 24 27 34 24 27 34 24 27 34 24 27 34 24 27 34 24 27 34 24 27 34 24 27 34 24 27 34 230 236 243 230 236 243 230 236 243 24 27 34 24 27 34 24 27 34 24 27 34 24 27 34 24 27 34 24 27 34 24 27 34 24 27 34 24 27 34 24 27 34 24 27 34 24 27 34 24 27 34 24 27 34 24 27 34 24 27 34
24 27 34 24 27 34 24 27 34 24 27 34 24 27 34 24 27 34 24 27 34 24 27 34 24 27 34 24 27 34 24 27 34 24 27 34 24 27 34 24 27 34 24 27 34 24 27 34 24 27 34 24 27 34 24 27 34 24 27 34 24 27 34 24 27 34 24 27 34 230 236 243 24 27 34 24 27 34 24 27 34 24 27 34 24 27 34 24 27 34 24 27 34 24 27 34 24 27 34 24 27 34 24 27 34 24 27 34 24 27 34 24 27 34 230 236 243 230 236 243 230 236 243 230 236 243 230 236 243 230 236 243 24 27 34 24 27 34 24 27 34 24 27 34 24 27 34 24 27 34 24 27 34 24 27 34 24 27 34 24 27 34 24 27 34 24 27 34 24 27 34 24 27 34 24 27 34 24 27 34 24 27 34 24 27 34 24 27 34 24 27 34
24 27 34 24 27 34 24 27 34 24 27 34 24 27 34 24 27 34 24 27 34 24 27 34 24 27 34 24 27 34 24 27 34 24 27 34 24 27 34 24 27 34 24 27 34 24 27 34 24 27 34 24 27 34 24 27 34 24 27 34 24 27 34 24 27 34 24 27 34 230 236 243 24 27 34 24 27 34 24 27 34 24 27 34 24 27 34 24 27 34 24 27 34 24 27 34 24 27 34 230 236 243 230 236 243 230 236 243 230 236 243 230 236 243 24 27 34 24 27 34 24 27 34 24 27 34 24 27 34 24 27 34 24 27 34 24 27 34 24 27 34 24 27 34 24 27 34 24 27 34 24 27 34 24 27 34 24 27 34 24 27 34 24 27 34 24 27 34 24 27 34 24 27 34 24 27 34 24 27 34 24 27 34 24 27 34 24 27 34 24 27 34
24 27 34 24 27 34 24 27 34 24 27 34 24 27 34 24 27 34 24 27 34 24 27 34 24 27 34 24 27 34 24 27 34 24 27 34 24 27 34 24 27 34 24 27 34 24 27 34 24 27 34 24 27 34 24 27 34 24 27 34 24 27 34 24 27 34 24 27 34 24 27 34 230 236 243 24 27 34 24 27 34 230 236 243 230 236 243 230 236 243 230 236 243 230 236 243 230 236 243 24 27 34 24 27 34 24 27 34 24 27 34 24 27 34 24 27 34 24 27 34 24 27 34 24 27 34 24 27 34 24 27 34 24 27 34 24 27 34 24 27 34 24 27 34 24 27 34 24 27 34 24 27 34 24 27 34 24 27 34 24 27 34 24 27 34 24 27 34 24 27 34 24 27 34 24 27 34 24 27 34 24 27 34 24 27 34 24 27 34 24 27 34
24 27 34 24 27 34 24 27 34 24 27 34 24 27 34 24 27 34 24 27 34 24 27 34 24 27 34 24 27 34 24 27 34 24 27 34 24 27 34 24 27 34 24 27 34 24 27 34 24 27 34 24 27 34 24 27 34 24 27 34 24 27 34 24 27 34 24 27 34 24 27 34 98 166 255 230 236 243 230 236 243 24 27 34 24 27 34 24 27 34 24 27 34 24 27 34 24 27 34 24 27 34 24 27 34 24 27 34 24 27 34 24 27 34 24 27 34 24 27 34 24 27 34 24 27 34 24 27 34 24 27 34 24 27 34 24 27 34 24 27 34 24 27 34 24 27 34 24 27 34 24 27 34 24 27 34 24 27 34 24 27 34 24 27 34 24 27 34 24 27 34 24 27 34 24 27 34 24 27 34 24 27 34 24 27 34 24 27 34 24 27 34
24 27 34 24 27 34 24 27 34 24 27 34 24 27 34 24 27 34 24 27 34 24 27 34 24 27 34 24 27 34 24 27 34 24 27 34 24 27 34 24 27 34 24 27 34 24 27 34 24 27 34 24 27 34 24 27 34 24 27 34 24 27 34 24 27 34 24 27 34 24 27 34 98 166 255 24 27 34 24 27 34 24 27 34 24 27 34 24 27 34 24 27 34 24 27 34 24 27 34 24 27 34 24 27 34 24 27 34 24 27 34 24 27 34 24 27 34 24 27 34 24 27 34 24 27 34 24 27 34 24 27 34 24 27 34 24 27 34 24 27 34 24 27 34 24 27 34 24 27 34 24 27 34 24 27 34 24 27 34 24 27 34 24 27 34 24 27 34 24 27 34 24 27 34 24 27 34 24 27 34 24 27 34 24 27 34 24 27 34 24 27 34
24 27 34 24 27 34 24 27 34 24 27 34 24 27 34 24 27 34 24 27 34 24 27 34 24 27 34 24 27 34 24 27 34 24 27 34 24 27 34 24 27 34 24 27 34 24 27 34 24 27 34 24 27 34 24 27 34 24 27 34 24 27 34 24 27 34 24 27 34 24 27 34 98 166 255 24 27 34 24 27 34 24 27 34 24 27 34 24 27 34 24 27 34 24 27 34 24 27 34 24 27 34 24 27 34 24 27 34 24 27 34 24 27 34 24 27 34 24 27 34 24 27 34 24 27 34 24 27 34 24 27 34 24 27 34 24 27 34 24 27 34 24 27 34 24 27 34 24 27 34 24 27 34 24 27 34 24 27 34 24 27 34 24 27 34 24 27 34 24 27 34 24 27 34 24 27 34 24 27 34 24 27 34 24 27 34 24 27 34 24 27 34
24 27 34 24 27 34 24 27 34 24 27 34 24 27 34 24 27 34 24 27 34 24 27 34 24 27 34 24 27 34 24 27 34 24 27 34 24 27 34 24 27 34 24 27 34 24 27 34 24 27 34 24 27 34 24 27 34 24 27 34 24 27 34 24 27 34 24 27 34 24 27 34 98 166 255 24 27 34 24 27 34 24 27 34 24 27 34 24 27 34 24 27 34 24 27 34 24 27 34 24 27 34 24 27 34 24 27 34 24 27 34 24 27 34 24 27 34 24 27 34 24 27 34 24 27 34 24 27 34 24 27 34 24 27 34 24 27 34 24 27 34 24 27 34 24 27 34 24 27 34 24 27 34 24 27 34 24 27 34 24 27 34 24 27 34 24 27 34 24 27 34 24 27 34 24 27 34 24 27 34 24 27 34 24 27 34 24 27 34 24 27 34
24 27 34 24 27 34 24 27 34 24 27 34 24 27 34 24 27 34 24 27 34 24 27 34 24 27 34 24 27 34 24 27 34 24 27 34 24 27 34 24 27 34 24 27 34 24 27 34 24 27 34 24 27 34 24 27 34 24 27 34 24 27 34 24 27 34 24 27 34 24 27 34 98 166 255 24 27 34 24 27 34 24 27 34 24 27 34 24 27 34 24 27 34 24 27 34 24 27 34 24 27 34 24 27 34 24 27 34 24 27 34 24 27 34 24 27 34 24 27 34 24 27 34 24 27 34 24 27 34 24 27 34 24 27 34 24 27 34 24 27 34 24 27 34 24 27 34 24 27 34 24 27 34 24 27 34 24 27 34 24 27 34 24 27 34 24 27 34 24 27 34 24 27 34 24 27 34 24 27 34 24 27 34 24 27 34 24 27 34 24 27 34
24 27 34 24 27 34 24 27 34 24 27 34 24 27 34 24 27 34 24 27 34 24 27 34 24 27 34 24 27 34 24 27 34 24 27 34 24 27 34 24 27 34 24 27 34 24 27 34 24 27 34 24 27 34 24 27 34 24 27 34 24 27 34 24 27 34 24 27 34 24 27 34 98 166 255 24 27 34 24 27 34 24 27 34 24 27 34 24 27 34 24 27 34 24 27 34 24 27 34 24 27 34 24 27 34 24 27 34 24 27 34 24 27 34 24 27 34 24 27 34 24 27 34 24 27 34 24 27 34 24 27 34 24 27 34 24 27 34 24 27 34 24 27 34 24 27 34 24 27 34 24 27 34 24 27 34 24 27 34 24 27 34 24 27 34 24 27 34 24 27 34 24 27 34 24 27 34 24 27 34 24 27 34 24 27 34 24 27 34 24 27 34
24 27 34 24 27 34 24 27 34 24 27 34 24 27 34 24 27 34 24 27 34 24 27 34 24 27 34 24 27 34 24 27 34 24 27 34 24 27 34 24 27 34 24 27 34 24 27 34 24 27 34 24 27 34 24 27 34 24 27 34 24 27 34 24 27 34 24 27 34 24 27 34 98 166 255 24 27 34 24 27 34 24 27 34 24 27 34 24 27 34 24 27 34 24 27 34 24 27 34 24 27 34 24 27 34 24 27 34 24 27 34 24 27 34 24 27 34 24 27 34 24 27 34 24 27 34 24 27 34 24 27 34 24 27 34 24 27 34 24 27 34 24 27 34 24 27 34 24 27 34 24 27 34 24 27 34 24 27 34 24 27 34 24 27 34 24 27 34 24 27 34 24 27 34 24 27 34 24 27 34 24 27 34 24 27 34 24 27 34 24 27 34
24 27 34 24 27 34 24 27 34 24 27 34 24 27 34 24 27 34 24 27 34 24 27 34 24 27 34 24 27 34 24 27 34 24 27 34 24 27 34 24 27 34 24 27 34 24 27 34 24 27 34 24 27 34 24 27 34 24 27 34 24 27 34 24 27 34 24 27 34 24 27 34 98 166 255 24 27 34 24 27 34 24 27 34 24 27 34 24 27 34 24 27 34 24 27 34 24 27 34 24 27 34 24 27 34 24 27 34 24 27 34 24 27 34 24 27 34 24 27 34 24 27 34 24 27 34 24 27 34 24 27 34 24 27 34 24 27 34 24 27 34 24 27 34 24 27 34 24 27 34 24 27 34 24 27 34 24 27 34 24 27 34 24 27 34 24 27 34 24 27 34 24 27 34 24 27 34 24 27 34 24 27 34 24 27 34 24 27 34 24 27 34
24 27 34 24 27 34 24 27 34 24 27 34 24 27 34 24 27 34 24 27 34 24 27 34 98 166 255 98 166 255 98 166 255 98 166 255 98 166 255 98 166 255 98 166 255 98 166 255 98 166 255 98 166 255 98 166 255 98 166 255 98 166 255 98 166 255 98 166 255 98 166 255 98 166 255 98 166 255 98 166 255 98 166 255 98 166 255 98 166 255 98 166 255 98 166 255 98 166 255 98 166 255 98 166 255 98 166 255 98 166 255 98 166 255 98 166 255 98 166 255 98 166 255 98 166 255 98 166 255 98 166 255 98 166 255 98 166 255 98 166 255 98 166 255 98 166 255 98 166 255 98 166 255 98 166 255 98 166 255 98 166 255 98 166 255 98 166 255 98 166 255 24 27 34 24 27 34 24 27 34 24 27 34 24 27 34 24 27 34 24 27 34
24 27 34 24 27 34 24 27 34 24 27 34 24 27 34 24 27 34 24 27 34 24 27 34 24 27 34 24 27 34 24 27 34 24 27 34 24 27 34 24 27 34 24 27 34 24 27 34 24 27 34 24 27 34 24 27 34 24 27 34 24 27 34 24 27 34 24 27 34 24 27 34 24 27 34 24 27 34 24 27 34 24 27 34 24 27 34 24 27 34 24 27 34 24 27 34 24 27 34 24 27 34 24 27 34 24 27 34 24 27 34 24 27 34 24 27 34 24 27 34 24 27 34 24 27 34 24 27 34 24 27 34 24 27 34 24 27 34 24 27 34 24 27 34 24 27 34 24 27 34 24 27 34 24 27 34 24 27 34 24 27 34 24 27 34 24 27 34 24 27 34 24 27 34 24 27 34 24 27 34 24 27 34 24 27 34 24 27 34 24 27 34
24 27 34 24 27 34 24 27 34 24 27 34 24 27 34 24 27 34 24 27 34 24 27 34 24 27 34 24 27 34 24 27 34 24 27 34 24 27 34 24 27 34 24 27 34 24 27 34 24 27 34 24 27 34 24 27 34 24 27 34 24 27 34 24 27 34 24 27 34 24 27 34 24 27 34 24 27 34 24 27 34 24 27 34 24 27 34 24 27 34 24 27 34 24 27 34 24 27 34 24 27 34 24 27 34 24 27 34 24 27 34 24 27 34 24 27 34 24 27 34 24 27 34 24 27 34 24 27 34 24 27 34 24 27 34 24 27 34 24 27 34 24 27 34 24 27 34 24 27 34 24 27 34 24 27 34 24 27 34 24 27 34 24 27 34 24 27 34 24 27 34 24 27 34 24 27 34 24 27 34 24 27 34 24 27 34 24 27 34 24 27 34
24 27 34 24 27 34 24 27 34 24 27 34 24 27 34 24 27 34 24 27 34 24 27 34 24 27 34 24 27 34 24 27 34 24 27 34 24 27 34 24 27 34 24 27 34 24 27 34 24 27 34 24 27 34 24 27 34 24 27 34 24 27 34 24 27 34 24 27 34 24 27 34 24 27 34 24 27 34 24 27 34 24 27 34 24 27 34 24 27 34 24 27 34 24 27 34 24 27 34 24 27 34 24 27 34 24 27 34 24 27 34 24 27 34 24 27 34 24 27 34 24 27 34 24 27 34 24 27 34 24 27 34 24 27 34 24 27 34 24 27 34 24 27 34 24 27 34 24 27 34 24 27 34 24 27 34 24 27 34 24 27 34 24 27 34 24 27 34 24 27 34 24 27 34 24 27 34 24 27 34 24 27 34 24 27 34 24 27 34 24 27 34
24 27 34 24 27 34 24 27 34 24 27 34 24 27 34 24 27 34 24 27 34 24 27 34 24 27 34 24 27 34 24 27 34 24 27 34 24 27 34 24 27 34 24 27 34 24 27 34 24 27 34 24 27 34 24 27 34 24 27 34 24 27 34 24 27 34 24 27 34 24 27 34 24 27 34 24 27 34 24 27 34 24 27 34 24 27 34 24 27 34 24 27 34 24 27 34 24 27 34 24 27 34 24 27 34 24 27 34 24 27 34 24 27 34 24 27 34 24 27 34 24 27 34 24 27 34 24 27 34 24 27 34 24 27 34 24 27 34 24 27 34 24 27 34 24 27 34 24 27 34 24 27 34 24 27 34 24 27 34 24 27 34 24 27 34 24 27 34 24 27 34 24 27 34 24 27 34 24 27 34 24 27 34 24 27 34 24 27 34 24 27 34
24 27 34 24 27 34 24 27 34 24 27 34 24 27 34 24 27 34 24 27 34 24 27 34 24 27 34 24 27 34 24 27 34 24 27 34 24 27 34 24 27 34 24 27 34 24 27 34 24 27 34 24 27 34 24 27 34 24 27 34 24 27 34 24 27 34 24 27 34 24 27 34 24 27 34 24 27 34 24 27 34 24 27 34 24 27 34 24 27 34 24 27 34 24 27 34 24 27 34 24 27 34 24 27 34 24 27 34 24 27 34 24 27 34 24 27 34 24 27 34 24 27 34 24 27 34 24 27 34 24 27 34 24 27 34 24 27 34 24 27 34 24 27 34 24 27 34 24 27 34 24 27 34 24 27 34 24 27 34 24 27 34 24 27 34 24 27 34 24 27 34 24 27 34 24 27 34 24 27 34 24 27 34 24 27 34 24 27 34 24 27 34
24 27 34 24 27 34 24 27 34 24 27 34 24 27 34 24 27 34 24 27 34 24 27 34 24 27 34 24 27 34 24 27 34 24 27 34 24 27 34 24 27 34 24 27 34 24 27 34 24 27 34 24 27 34 24 27 34 24 27 34 24 27 34 24 27 34 24 27 34 24 27 34 24 27 34 24 27 34 24 27 34 24 27 34 24 27 34 24 27 34 24 27 34 24 27 34 24 27 34 24 27 34 24 27 34 24 27 34 24 27 34 24 27 34 24 27 34 24 27 34 24 27 34 24 27 34 24 27 34 24 27 34 24 27 34 24 27 34 24 27 34 24 27 34 24 27 34 24 27 34 24 27 34 24 27 34 24 27 34 24 27 34 24 27 34 24 27 34 24 27 34 24 27 34 24 27 34 24 27 34 24 27 34 24 27 34 24 27 34 24 27 34
24 27 34 24 27 34 24 27 34 24 27 34 24 27 34 24 27 34 24 27 34 24 27 34 24 27 34 24 27 34 24 27 34 24 27 34 24 27 34 24 27 34 24 27 34 24 27 34 24 27 34 24 27 34 24 27 34 24 27 34 24 27 34 24 27 34 24 27 34 24 27 34 24 27 34 24 27 34 24 27 34 24 27 34 24 27 34 24 27 34 24 27 34 24 27 34 24 27 34 24 27 34 24 27 34 24 27 34 24 27 34 24 27 34 24 27 34 24 27 34 24 27 34 24 27 34 24 27 34 24 27 34 24 27 34 24 27 34 24 27 34 24 27 34 24 27 34 24 27 34 24 27 34 24 27 34 24 27 34 24 27 34 24 27 34 24 27 34 24 27 34 24 27 34 24 27 34 24 27 34 24 27 34 24 27 34 24 27 34 24 27 34
24 27 34 24 27 34 24 27 34 24 27 34 24 27 34 24 27 34 24 27 34 24 27 34 24 27 34 24 27 34 24 27 34 24 27 34 24 27 34 24 27 34 24 27 34 24 27 34 24 27 34 24 27 34 24 27 34 24 27 34 24 27 34 24 27 34 24 27 34 24 27 34 24 27 34 24 27 34 24 27 34 24 27 34 24 27 34 24 27 34 24 27 34 24 27 34 24 27 34 24 27 34 24 27 34 24 27 34 24 27 34 24 27 34 24 27 34 24 27 34 24 27 34 24 27 34 24 27 34 24 27 34 24 27 34 24 27 34 24 27 34 24 27 34 24 27 34 24 27 34 24 27 34 24 27 34 24 27 34 24 27 34 24 27 34 24 27 34 24 27 34 24 27 34 24 27 34 24 27 34 24 27 34 24 27 34 24 27 34 24 27 34
24 27 34 24 27 34 24 27 34 24 27 34 24 27 34 24 27 34 24 27 34 24 27 34 24 27 34 24 27 34 24 27 34 24 27 34 24 27 34 24 27 34 24 27 34 24 27 34 24 27 34 24 27 34 24 27 34 24 27 34 24 27 34 24 27 34 24 27 34 24 27 34 24 27 34 24 27 34 24 27 34 24 27 34 24 27 34 24 27 34 24 27 34 24 27 34 24 27 34 24 27 34 24 27 34 24 27 34 24 27 34 24 27 34 24 27 34 24 27 34 24 27 34 24 27 34 24 27 34 24 27 34 24 27 34 24 27 34 24 27 34 24 27 34 24 27 34 24 27 34 24 27 34 24 27 34 24 27 34 24 27 34 24 27 34 24 27 34 24 27 34 24 27 34 24 27 34 24 27 34 24 27 34 24 27 34 24 27 34 24 27 34
24 27 34 24 27 34 24 27 34 24 27 34 24 27 34 24 27 34 24 27 34 24 27 34 24 27 34 24 27 34 24 27 34 24 27 34 24 27 34 24 27 34 24 27 34 24 27 34 24 27 34 24 27 34 24 27 34 24 27 34 24 27 34 24 27 34 24 27 34 24 27 34 24 27 34 24 27 34 24 27 34 24 27 34 24 27 34 24 27 34 24 27 34 24 27 34 24 27 34 24 27 34 24 27 34 24 27 34 24 27 34 24 27 34 24 27 34 24 27 34 24 27 34 24 27 34 24 27 34 24 27 34 24 27 34 24 27 34 24 27 34 24 27 34 24 27 34 24 27 34 24 27 34 24 27 34 24 27 34 24 27 34 24 27 34 24 27 34 24 27 34 24 27 34 24 27 34 24 27 34 24 27 34 24 27 34 24 27 34 24 27 34
24 27 34 24 27 34 24 27 34 24 27 34 24 27 34 24 27 34 24 27 34 24 27 34 24 27 34 24 27 34 24 27 34 24 27 34 24 27 34 24 27 34 24 27 34 24 27 34 24 27 34 24 27 34 24 27 34 24 27 34 24 27 34 24 27 34 24 27 34 24 27 34 24 27 34 24 27 34 24 27 34 24 27 34 24 27 34 24 27 34 24 27 34 24 27 34 24 27 34 24 27 34 24 27 34 24 27 34 24 27 34 24 27 34 24 27 34 24 27 34 24 27 34 24 27 34 24 27 34 24 27 34 24 27 34 24 27 34 24 27 34 24 27 34 24 27 34 24 27 34 24 27 34 24 27 34 24 27 34 24 27 34 24 27 34 24 27 34 24 27 34 24 27 34 24 27 34 24 27 34 24 27 34 24 27 34 24 27 34 24 27 34
24 27 34 24 27 34 24 27 34 24 27 34 24 27 34 24 27 34 24 27 34 24 27 34 24 27 34 24 27 34 24 27 34 24 27 34 24 27 34 24 27 34 24 27 34 24 27 34 24 27 34 24 27 34 24 27 34 24 27 34 24 27 34 24 27 34 24 27 34 24 27 34 24 27 34 24 27 34 24 27 34 24 27 34 24 27 34 24 27 34 24 27 34 24 27 34 24 27 34 24 27 34 24 27 34 24 27 34 24 27 34 24 27 34 24 27 34 24 27 34 24 27 34 24 27 34 24 27 34 24 27 34 24 27 34 24 27 34 24 27 34 24 27 34 24 27 34 24 27 34 24 27 34 24 27 34 24 27 34 24 27 34 24 27 34 24 27 34 24 27 34 24 27 34 24 27 34 24 27 34 24 27 34 24 27 34 24 27 34 24 27 34
24 27 34 24 27 34 24 27 34 24 27 34 24 27 34 24 27 34 24 27 34 24 27 34 24 27 34 24 27 34 24 27 34 24 27 34 24 27 34 24 27 34 24 27 34 24 27 34 24 27 34 24 27 34 24 27 34 24 27 34 24 27 34 24 27 34 24 27 34 24 27 34 24 27 34 24 27 34 24 27 34 24 27 34 24 27 34 24 27 34 24 27 34 24 27 34 24 27 34 24 27 34 24 27 34 24 27 34 24 27 34 24 27 34 24 27 34 24 27 34 24 27 34 24 27 34 24 27 34 24 27 34 24 27 34 24 27 34 24 27 34 24 27 34 24 27 34 24 27 34 24 27 34 24 27 34 24 27 34 24 27 34 24 27 34 24 27 34 24 27 34 24 27 34 24 27 34 24 27 34 24 27 34 24 27 34 24 27 34 24 27 34
24 27 34 24 27 34 24 27 34 24 27 34 24 27 34 24 27 34 24 27 34 24 27 34 24 27 34 24 27 34 24 27 34 24 27 34 24 27 34 24 27 34 24 27 34 24 27 34 24 27 34 24 27 34 24 27 34 24 27 34 24 27 34 24 27 34 24 27 34 24 27 34 24 27 34 24 27 34 24 27 34 24 27 34 24 27 34 24 27 34 24 27 34 24 27 34 24 27 34 24 27 34 24 27 34 24 27 34 24 27 34 24 27 34 24 27 34 24 27 34 24 27 34 24 27 34 24 27 34 24 27 34 24 27 34 24 27 34 24 27 34 24 27 34 24 27 34 24 27 34 24 27 34 24 27 34 24 27 34 24 27 34 24 27 34 24 27 34 24 27 34 24 27 34 24 27 34 24 27 34 24 27 34 24 27 34 24 27 34 24 27 34
24 27 34 24 27 34 24 27 34 24 27 34 24 27 34 24 27 34 24 27 34 24 27 34 24 27 34 24 27 34 24 27 34 24 27 34 24 27 34 24 27 34 24 27 34 24 27 34 24 27 34 24 27 34 24 27 34 24 27 34 24 27 34 24 27 34 24 27 34 24 27 34 24 27 34 24 27 34 24 27 34 24 27 34 24 27 34 24 27 34 24 27 34 24 27 34 24 27 34 24 27 34 24 27 34 24 27 34 24 27 34 24 27 34 24 27 34 24 27 34 24 27 34 24 27 34 24 27 34 24 27 34 24 27 34 24 27 34 24 27 34 24 27 34 24 27 34 24 27 34 24 27 34 24 27 34 24 27 34 24 27 34 24 27 34 24 27 34 24 27 34 24 27 34 24 27 34 24 27 34 24 27 34 24 27 34 24 27 34 24 27 34
24 27 34 24 27 34 24 27 34 24 27 34 24 27 34 24 27 34 24 27 34 24 27 34 24 27 34 24 27 34 24 27 34 24 27 34 24 27 34 24 27 34 24 27 34 24 27 34 24 27 34 24 27 34 24 27 34 24 27 34 24 27 34 24 27 34 24 27 34 24 27 34 24 27 34 24 27 34 24 27 34 24 27 34 24 27 34 24 27 34 24 27 34 24 27 34 24 27 34 24 27 34 24 27 34 24 27 34 24 27 34 24 27 34 24 27 34 24 27 34 24 27 34 24 27 34 24 27 34 24 27 34 24 27 34 24 27 34 24 27 34 24 27 34 24 27 34 24 27 34 24 27 34 24 27 34 24 27 34 24 27 34 24 27 34 24 27 34 24 27 34 24 27 34 24 27 34 24 27 34 24 27 34 24 27 34 24 27 34 24 27 34
24 27 34 24 27 34 24 27 34 24 27 34 24 27 34 24 27 34 24 27 34 24 27 34 24 27 34 24 27 34 24 27 34 24 27 34 24 27 34 24 27 34 24 27 34 24 27 34 24 27 34 24 27 34 24 27 34 24 27 34 24 27 34 24 27 34 24 27 34 24 27 34 24 27 34 24 27 34 24 27 34 24 27 34 24 27 34 24 27 34 24 27 34 24 27 34 24 27 34 24 27 34 24 27 34 24 27 34 24 27 34 24 27 34 24 27 34 24 27 34 24 27 34 24 27 34 24 27 34 24 27 34 24 27 34 24 27 34 24 27 34 24 27 34 24 27 34 24 27 34 24 27 34 24 27 34 24 27 34 24 27 34 24 27 34 24 27 34 24 27 34 24 27 34 24 27 34 24 27 34 24 27 34 24 27 34 24 27 34 24 27 34
